X:7
T:()
M:4/4
L:1/8
Q:180
K:Eb
|: cccccB e>z | BBAG F2F2 :|
|: EEEEE2 GA | BBAG F2F2 | EEEEE2 GA | BBAG F2F2 :|
| ccccc2 BA | BBAG F2F2 | ccccc2 BA | BBAG F2F2 | ccccc2 BA | BBAG F2F2 | cccccB e>z | BBAG F2F2 |
|: EEEEE2 GA | BBAG F2F2 | EEEEE2 GA | BBAG F2F2 :|
